X: 1
T: Martin Rochford's
Z: Alistair Cassidy
S: https://thesession.org/tunes/1062#setting14290
R: reel
M: 4/4
L: 1/8
K: Gmaj
|:G2 DE GABd|dBAc Beed|GEDE GAeB|1 dBAc BEEF:|2 dBAc BEEf||
g2 ag fedA|Beed Beef|g2 bg fedB|dBAc BEEf|
g2 ag fedA|Beed eeef|gbbg faaf|dBAc BEEF||

